img/Group.svg

<svg width="62" height="62" viewBox="0 0 62 62" fill="none" xmlns="http://www.w3.org/2000/svg">
<path d="M31 61.9698C35.2347 61.9698 39.2211 61.1597 42.9592 59.5395C46.6975 57.9195 49.9951 55.6817 52.8518 52.8261C55.7088 49.9707 57.9477 46.6748 59.5685 42.9383C61.1895 39.202 62 35.2175 62 30.9849C62 26.7523 61.1895 22.7678 59.5685 19.0314C57.9477 15.295 55.7088 11.999 52.8518 9.14357C49.9951 6.2881 46.6925 4.05031 42.944 2.43019C39.1957 0.810062 35.2042 0 30.9696 0C26.7349 0 22.7485 0.810062 19.0103 2.43019C15.272 4.05031 11.9796 6.2881 9.13283 9.14357C6.2861 11.999 4.05228 15.295 2.43137 19.0314C0.810457 22.7678 0 26.7523 0 30.9849C0 35.2175 0.810457 39.202 2.43137 42.9383C4.05228 46.6748 6.29117 49.9707 9.14802 52.8261C12.0049 55.6817 15.3024 57.9195 19.0406 59.5395C22.7789 61.1597 26.7653 61.9698 31 61.9698ZM31 56.8055C27.4137 56.8055 24.0604 56.1373 20.9402 54.8007C17.8199 53.4642 15.0796 51.6163 12.7191 49.257C10.3586 46.8976 8.51486 44.1586 7.18774 41.0399C5.86061 37.9212 5.19705 34.5695 5.19705 30.9849C5.19705 27.4004 5.86061 24.0487 7.18774 20.93C8.51486 17.8112 10.3536 15.0672 12.7039 12.6977C15.0542 10.3283 17.7895 8.48033 20.9098 7.15385C24.03 5.82739 27.3833 5.16416 30.9696 5.16416C34.5559 5.16416 37.9091 5.82739 41.0294 7.15385C44.1496 8.48033 46.8951 10.3283 49.2657 12.6977C51.6363 15.0672 53.4902 17.8112 54.8274 20.93C56.1646 24.0487 56.8332 27.4004 56.8332 30.9849C56.8332 34.5695 56.1697 37.9212 54.8427 41.0399C53.5154 44.1586 51.6716 46.8976 49.3111 49.257C46.9507 51.6163 44.2052 53.4642 41.0748 54.8007C37.9446 56.1373 34.5863 56.8055 31 56.8055ZM20.6058 43.8345C21.315 43.8345 21.9026 43.5814 22.3686 43.0752L30.9696 34.4478L39.6314 43.0752C40.1177 43.5814 40.6951 43.8345 41.3636 43.8345C42.0323 43.8345 42.6048 43.5914 43.0809 43.1054C43.5571 42.6193 43.7952 42.0421 43.7952 41.374C43.7952 40.7056 43.552 40.1284 43.0657 39.6423L34.4344 31.0152L43.0962 22.3273C43.5823 21.8413 43.8253 21.2743 43.8253 20.6262C43.8253 19.9579 43.5873 19.3858 43.1111 18.9099C42.6349 18.434 42.0626 18.196 41.3941 18.196C40.7659 18.196 40.2087 18.4492 39.7226 18.9555L30.9696 27.613L22.3078 18.9858C21.8621 18.4998 21.2947 18.2568 20.6058 18.2568C19.9372 18.2568 19.3649 18.4897 18.8887 18.9555C18.4126 19.4212 18.1745 19.9883 18.1745 20.6566C18.1745 21.3249 18.4176 21.8919 18.9039 22.3577L27.5353 31.0152L18.9039 39.6728C18.4176 40.1385 18.1745 40.7056 18.1745 41.374C18.1745 42.0421 18.4126 42.6193 18.8887 43.1054C19.3649 43.5914 19.9372 43.8345 20.6058 43.8345Z" fill="white" fill-opacity="0.85"/>
</svg>

<svg width="62" height="62" fill="none" xmlns="http://www.w3.org/2000/svg"><path d="M31 61.97c4.235 0 8.221-.81 11.96-2.43a31.682 31.682 0 0 0 9.892-6.714 31.666 31.666 0 0 0 6.717-9.888C61.188 39.202 62 35.218 62 30.985s-.81-8.217-2.431-11.954a31.668 31.668 0 0 0-6.717-9.887 31.636 31.636 0 0 0-9.908-6.714C39.196.81 35.204 0 30.97 0c-4.235 0-8.221.81-11.96 2.43a31.506 31.506 0 0 0-9.877 6.714A31.8 31.8 0 0 0 2.43 19.03C.811 22.768 0 26.752 0 30.985c0 4.233.81 8.217 2.431 11.953a31.67 31.67 0 0 0 6.717 9.888 31.685 31.685 0 0 0 9.893 6.713c3.738 1.62 7.724 2.43 11.959 2.43Zm0-5.164c-3.586 0-6.94-.669-10.06-2.005a25.987 25.987 0 0 1-8.22-5.544 25.766 25.766 0 0 1-5.532-8.217c-1.327-3.119-1.99-6.47-1.99-10.055-.001-3.585.663-6.936 1.99-10.055a26.07 26.07 0 0 1 5.516-8.232 25.481 25.481 0 0 1 8.206-5.544c3.12-1.327 6.473-1.99 10.06-1.99 3.586 0 6.94.663 10.06 1.99a25.835 25.835 0 0 1 8.236 5.544 26.028 26.028 0 0 1 5.561 8.232c1.338 3.119 2.006 6.47 2.006 10.055 0 3.584-.663 6.936-1.99 10.055a25.77 25.77 0 0 1-5.532 8.217c-2.36 2.36-5.106 4.207-8.236 5.544-3.13 1.336-6.489 2.005-10.075 2.005ZM20.606 43.835c.709 0 1.297-.254 1.763-.76l8.6-8.627 8.662 8.627c.487.506 1.064.76 1.733.76.668 0 1.24-.244 1.717-.73a2.39 2.39 0 0 0 .714-1.731c0-.668-.243-1.246-.73-1.732l-8.63-8.627 8.661-8.688c.486-.486.73-1.053.73-1.7a2.34 2.34 0 0 0-.715-1.717 2.342 2.342 0 0 0-1.717-.714c-.628 0-1.185.253-1.671.76l-8.753 8.657-8.662-8.627c-.446-.486-1.013-.73-1.702-.73-.669 0-1.241.234-1.717.7a2.29 2.29 0 0 0-.715 1.7c0 .669.244 1.236.73 1.702l8.631 8.657-8.631 8.658a2.267 2.267 0 0 0-.73 1.701c0 .668.239 1.245.715 1.731s1.048.73 1.717.73Z" fill="#fff" fill-opacity=".85"/></svg>
